X:1
T:I Want Jesus to Walk with Me
T:I Want Jesus to Walk with Me
%%score ( 1 2 ) ( 3 4 )
L:1/8
M:4/4
K:F
V:1 treble nm="Piano" snm="Pno."
V:2 treble 
V:3 bass nm="Piano" snm="Pno."
V:4 bass 
V:1
 D2 D2 F2 | A4 A4- | A2 D2 F2 E2 | D8- | D2 F2 F2 A2 | c4 c4- | c2 A2 dc A2 | A8- | A2 z2 A2 ^c2 | %9
w: 1 I want|Je- sus|_ to walk with|me:|_ when I want|Je- sus|_ to walk _ with|me;|_ all a-|
w: 2 In my|tri- als|_ Lord, walk with|me;|_ _ in my|tri- als,|_ Lord, walk _ with|me;|_ when my|
w: 3~When I’m in|trou- ble,|_ Lord, walk with|me;|_ _ I'm in|trou- ble,|_ Lord, walk _ with|me;|_ when my|
 d4 d4- | d2 (d3 c) A2 | F4 D4- | D2 d3 c A2 | F4 D4- | D2 D2 F2 E2 | D8- | D4 |] %17
w: long my|_ pil- * grim|jour- ney,|_ Lord, I want|Je- sus|_ to walk with|me.||
w: heart is|_ al- * most|break- ing,|_ Lord, I want|Je- sus|_ to walk with|me.||
w: head is|_ bowed _ in|sor- row,|_ Lord, I want|Je- sus|_ to walk with|me.||
V:2
 x6 | D4 ^C4 | D4 ^C4 | D4 C4 | D4 z4 | F4 D2 E2 | F4 F4 | ^C4 D4 | E4 z4 | D8 | G4 E4 | D8 | %12
 D4 E4 | D4 D4 | B,4 ^C4 | A,4 B,4 | [F,A,]4 |] %17
V:3
 z2 z4 | [D,F,]4 [E,G,]4 | [F,A,]4 [A,,G,]4 | [D,F,]4 [A,,E,]4 | [D,F,]4 z4 | [F,A,]4 [G,B,]4 | %6
 [A,C]4 [F,A,]4 | [E,G,]4 [D,F,]4 | G,2 B,2 [A,,A,]2 [A,,G,]2 | [D,F,]8 | [E,B,]4 [C,B,]4 | A,8 | %12
 [B,,F,]4 [C,G,]4 | A,4 F,4- | F,4- F,2 G,2 | [D,F,]4 [G,,E,]4 | D,,4 |] %17
V:4
 x6 | x8 | x8 | x8 | x8 | x8 | x8 | x8 | ^C,4 z4 | x8 | x8 | D,4 C,4 | x8 | D,2 C,2 B,,2 A,,2 | %14
 G,,4 A,,4 | x8 | x4 |] %17

